X: 41062
T: Trip To Nenagh, The
R: reel
M: 4/4
K: Dmixolydian
|:dcAG FADF|A,DFA dcAG|Ad d/^c/d d=fed|c2 Gc EcGc|
dcAG F2 D/E/F|A,DFA dcAG|Add^c AdFA|GC E/F/G FD D:|
|:Ad d/^c/d adfa|gfed ^caec|d2 AG F/G/A DG|(3EFG AB c2 Bc|
Add^c Ad f/e/d|^cdef gefg|a2 ea ^caec|dcAG FD D:|

